X:626
T: "Kuhreigen"
N: Z1307
O: Europa, Mitteleuropa, Schweiz, Basel
R: Handwerker -, Bauern - Lied
M: 6/8
L: 1/8
K: F
F2Ac2d | c2BA2F |
FABc2d | cBAA2G |
GA=Bc2e | =BABc3 |
cefgag | fA=Bc2
e | dA=Bc2e | dA=Bc3

@@@ Tune index: 10384
